X: 2211
T: Mrs Stewart of Allanbank's Strathspey
%R: strathspey
B: Niel Gow & Sons "A Second Collection of Strathspey Reels, etc." v.2 p.21 #1 (top 4 staves continued from p.20)
Z: 2022 John Chambers <jc:trillian.mit.edu>
M: C|
L: 1/8
K: A
% - - - - - - - - - -
% Voice 1 reformatted for 3 6-bar lines.
V: 1 staves=2
C |\
(A,EA).c (d/c/)B/A/ GA | (B/c/d) (c/d/e) BB,TB,>C | TA,3c (d/c/)B/A/ GA | (B/c/d) Tc>B AA,A :||: E | T[FA,4]EAE TFEFC | DFTEC B,B-BE |
TFEAE TFEFD | (CD)TB,>C A,AA :||: d | (Tc>de)A (GA)(FA) | (CED).C B,B-Bd | (Tc>de)A (fA)(eA) | (dc)TBA EAA :|
|: c | (A>c)eg (ag)(Tfe) | (dc)TBA GBTB>c | (Aa)(ga) eaca | Ba (g/a/b) aAA :| (TBA)GF (TED)CB, | CA,d>B cAA |]
% - - - - - - - - - -
% Voice 2 preserves the staff layout in the book.
V: 2 clef=bass middle=d
z | A2a2 A2a2 | g2a2 e2E2 | A2a2 A2a2 | e2E2 A2A :||: z | d2c2 d2A2 |
B2cA e2E2 | d2c2 d2D2 |e2E2 A2A :||: z | a2c'2 e'2d'2 | a2A2 e2E2 | A2c2 d2c2 | e2E2
A2A :||: z | A2a2 A2a2 | g2a2 e2E2 | A2a2 A2a2 | d2e2 a2A :| e3d cBAG | A2eE A2A |]
